X: 1
T: the Golden Keyboard
C: Martin Mulhaire
D: Matt Molloy & Sean Keane: Contentment is Wealth.
Z: 1999 John Chambers <jc:trillian.mit.edu>
M: C|
K: EDor
|: "Em"BGEF GFGA | "Em"B2gB fBed | "Em"BGEF GBAG | "D"(3FED AD BDAD |  "Em"EDEF GFGA |
| "Em"B2gB fBeB | "D"d2ce dBAF | "D"DFAF "Em"GEE2 :: "Em"B~e3 B~e3 | "Em"Befd "(A7"edBc | "D"d~A3 "A"e~A3 |
| "D"dA"(A)"ce "D"dBAF |  "Em"EDEF GFGA | "Em"B2gB fBeB | "D"d2ce dBAF | "D"DFAF "Em"GEE2 :|
